; generated by PrusaSlicer 2.2.0+ on 2021-04-18 at 13:58:47 UTC

; 

; external perimeters extrusion width = 0.45mm
; perimeters extrusion width = 0.45mm
; infill extrusion width = 0.45mm
; solid infill extrusion width = 0.45mm
; top infill extrusion width = 0.40mm
; first layer extrusion width = 0.42mm

M73 P0 R137
M73 Q0 S138
M201 X1000 Y1000 Z1000 E5000 ; sets maximum accelerations, mm/sec^2
M203 X200 Y200 Z12 E120 ; sets maximum feedrates, mm/sec
M204 P1250 R1250 T1250 ; sets acceleration (P, T) and retract acceleration (R), mm/sec^2
M205 X8.00 Y8.00 Z0.40 E4.50 ; sets the jerk limits, mm/sec
M205 S0 T0 ; sets the minimum extruding and travel feed rate, mm/sec
M107
M862.3 P "MK3S" ; printer model check
M862.1 P0.4 ; nozzle diameter check
M115 U3.8.1 ; tell printer latest fw version
G90 ; use absolute coordinates
M83 ; extruder relative mode
M104 S215 ; set extruder temp
M140 S60 ; set bed temp
M190 S60 ; wait for bed temp
M109 S215 ; wait for extruder temp
G28 W ; home all without mesh bed level
G80 ; mesh bed leveling
G1 Y-3.0 F1000.0 ; go outside print area
G92 E0.0
G1 X60.0 E9.0 F1000.0 ; intro line
M73 Q0 S138
M73 P0 R137
G1 X100.0 E12.5 F1000.0 ; intro line
G92 E0.0
M221 S95
G21 ; set units to millimeters
G90 ; use absolute coordinates
M83 ; use relative distances for extrusion
M900 K30 ; Filament gcode
;BEFORE_LAYER_CHANGE
G92 E0.0
;0.2


G1 E-0.80000 F2100.00000
G1 Z0.600 F10800.000
;AFTER_LAYER_CHANGE
;0.2
G1 X81.453 Y43.977
G1 Z0.200
G1 E0.80000 F2100.00000
M204 S1000
G1 F1200.000
G1 X81.751 Y43.350 E0.02178
G1 X82.124 Y42.918 E0.01787
G1 X82.591 Y42.586 E0.01799
G1 X83.125 Y42.375 E0.01799
G1 X83.693 Y42.298 E0.01799
G1 X166.279 Y42.298 E2.58941
G1 X167.181 Y42.477 E0.02884
G1 X167.945 Y42.983 E0.02872
G1 X168.460 Y43.740 E0.02872
G1 X168.652 Y44.636 E0.02872
G1 X168.652 Y165.333 E3.78436
G1 X168.547 Y166.023 E0.02190
G1 X168.249 Y166.650 E0.02178
G1 X167.871 Y167.087 E0.01811
G1 X167.399 Y167.420 E0.01811
G1 X166.860 Y167.629 E0.01811
G1 X166.291 Y167.702 E0.01799
G1 X83.714 Y167.702 E2.58917
G1 X83.027 Y167.597 E0.02178
G1 X82.400 Y167.299 E0.02178
G1 X81.963 Y166.921 E0.01811
G1 X81.630 Y166.449 E0.01811
G1 X81.421 Y165.910 E0.01811
G1 X81.348 Y165.338 E0.01811
G1 X81.348 Y44.667 E3.78353
G1 X81.444 Y44.036 E0.02001
G1 F8640.000
G1 X81.751 Y43.350 E-0.17368
G1 X82.124 Y42.918 E-0.13161
G1 X82.591 Y42.586 E-0.13248
G1 X83.125 Y42.375 E-0.13248
G1 X83.693 Y42.298 E-0.13248
G1 X83.941 Y42.298 E-0.05726
G1 E-0.04000 F2100.00000
G1 Z0.800 F10800.000
G1 X99.047 Y120.960
G1 Z0.200
G1 E0.80000 F2100.00000
G1 F1200.000
G1 X133.810 Y118.996 E1.09168
G1 X118.129 Y150.083 E1.09168
G1 X117.222 Y150.134 E0.02850
G1 X98.638 Y121.772 E1.06319
G1 X99.020 Y121.014 E0.02661
G1 X99.286 Y121.324 F10800.000
G1 F1200.000
G1 X133.179 Y119.410 E1.06438
G1 X117.891 Y149.719 E1.06438
G1 X117.418 Y149.746 E0.01484
G1 X99.073 Y121.747 E1.04954
G1 X99.259 Y121.378 E0.01296
G1 X99.196 Y120.935 F10800.000
G1 F8640.000
G1 X102.545 Y121.187 E-0.76000
G1 E-0.04000 F2100.00000
G1 Z0.800 F10800.000
G1 X126.176 Y82.095
G1 Z0.200
G1 E0.80000 F2100.00000
G1 F1200.000
G1 X126.779 Y82.774 E0.02850
G1 X116.078 Y114.951 E1.06319
G1 X115.188 Y115.133 E0.02850
G1 X92.673 Y89.778 E1.06319
G1 X92.960 Y88.916 E0.02850
G1 X126.117 Y82.107 E1.06131
G1 X126.038 Y82.508 F10800.000
G1 F1200.000
G1 X126.353 Y82.862 E0.01484
G1 X115.789 Y114.625 E1.04954
G1 X115.326 Y114.720 E0.01484
G1 X93.100 Y89.691 E1.04954
G1 X93.249 Y89.241 E0.01484
G1 X125.980 Y82.520 E1.04765
G1 X126.378 Y82.297 F10800.000
G1 F8640.000
G1 X126.353 Y82.862 E-0.11686
G1 X125.474 Y85.505 E-0.64314
G1 E-0.04000 F2100.00000
G1 Z0.800 F10800.000
G1 X114.662 Y158.187
G1 Z0.200
G1 E0.80000 F2100.00000
G1 F1200.000
G1 X114.662 Y151.838 E0.19908
G1 X84.512 Y151.838 E0.94533
G1 X84.512 Y45.462 E3.33534
G1 X165.488 Y45.462 E2.53894
G1 X165.488 Y164.538 E3.73354
M73 Q0 S137
M73 P0 R136
G1 X84.512 Y164.538 E2.53894
G1 X84.512 Y158.187 E0.19912
G1 X114.602 Y158.187 E0.94344
G1 X114.285 Y157.810 F10800.000
G1 F1200.000
G1 X114.285 Y152.215 E0.17543
G1 X84.135 Y152.215 E0.94533
G1 X84.135 Y45.085 E3.35899
G1 X165.865 Y45.085 E2.56259
G1 X165.865 Y164.915 E3.75719
G1 X84.135 Y164.915 E2.56259
G1 X84.135 Y157.810 E0.22277
G1 X114.225 Y157.810 E0.94344
G1 X114.684 Y157.779 F10800.000
G1 F8640.000
G1 X114.260 Y154.519 E-0.76000
G1 E-0.04000 F2100.00000
G1 Z0.800 F10800.000
G1 X127.032 Y164.425
G1 Z0.200
G1 E0.80000 F2100.00000
G1 F1200.000
G1 X114.945 Y152.338 E0.53659
G1 X114.945 Y152.871 E0.01676
G1 X126.328 Y164.255 E0.50536
G1 X125.794 Y164.255 E0.01676
G1 X114.945 Y153.405 E0.48166
G1 X114.945 Y153.939 E0.01676
G1 X125.261 Y164.255 E0.45796
G1 X124.727 Y164.255 E0.01676
G1 X114.945 Y154.473 E0.43425
G1 X114.945 Y155.007 E0.01676
G1 X124.193 Y164.255 E0.41055
G1 X123.659 Y164.255 E0.01676
G1 X114.945 Y155.541 E0.38685
G1 X114.945 Y156.075 E0.01676
G1 X123.125 Y164.255 E0.36315
G1 X122.591 Y164.255 E0.01676
G1 X114.945 Y156.609 E0.33945
G1 X114.945 Y157.143 E0.01676
G1 X122.057 Y164.255 E0.31575
G1 X121.523 Y164.255 E0.01676
G1 X114.945 Y157.676 E0.29205
G1 X114.945 Y158.210 E0.01676
G1 X120.990 Y164.255 E0.26835
G1 X120.456 Y164.255 E0.01676
G1 X114.671 Y158.470 E0.25682
G1 X114.137 Y158.470 E0.01676
G1 X119.922 Y164.255 E0.25682
G1 X119.388 Y164.255 E0.01676
G1 X113.603 Y158.470 E0.25682
G1 X113.069 Y158.470 E0.01676
G1 X118.854 Y164.255 E0.25682
G1 X118.320 Y164.255 E0.01676
G1 X112.535 Y158.470 E0.25682
G1 X112.001 Y158.470 E0.01676
G1 X117.786 Y164.255 E0.25682
G1 X117.252 Y164.255 E0.01676
G1 X111.467 Y158.470 E0.25682
G1 X110.933 Y158.470 E0.01676
G1 X116.718 Y164.255 E0.25682
G1 X116.185 Y164.255 E0.01676
G1 X110.399 Y158.470 E0.25682
G1 X109.866 Y158.470 E0.01676
G1 X115.651 Y164.255 E0.25682
G1 X115.117 Y164.255 E0.01676
G1 X109.332 Y158.470 E0.25682
G1 X108.798 Y158.470 E0.01676
G1 X114.583 Y164.255 E0.25682
G1 X114.049 Y164.255 E0.01676
G1 X108.264 Y158.470 E0.25682
G1 X107.730 Y158.470 E0.01676
G1 X113.515 Y164.255 E0.25682
G1 X112.981 Y164.255 E0.01676
G1 X107.196 Y158.470 E0.25682
G1 X106.662 Y158.470 E0.01676
G1 X112.447 Y164.255 E0.25682
G1 X111.913 Y164.255 E0.01676
G1 X106.128 Y158.470 E0.25682
G1 X105.594 Y158.470 E0.01676
G1 X111.380 Y164.255 E0.25682
G1 X110.846 Y164.255 E0.01676
G1 X105.061 Y158.470 E0.25682
G1 X104.527 Y158.470 E0.01676
G1 X110.312 Y164.255 E0.25682
G1 X109.778 Y164.255 E0.01676
G1 X103.993 Y158.470 E0.25682
G1 X103.459 Y158.470 E0.01676
G1 X109.244 Y164.255 E0.25682
G1 X108.710 Y164.255 E0.01676
G1 X102.925 Y158.470 E0.25682
G1 X102.391 Y158.470 E0.01676
G1 X108.176 Y164.255 E0.25682
G1 X107.642 Y164.255 E0.01676
G1 X101.857 Y158.470 E0.25682
G1 X101.323 Y158.470 E0.01676
G1 X107.108 Y164.255 E0.25682
G1 X106.575 Y164.255 E0.01676
G1 X100.789 Y158.470 E0.25682
G1 X100.256 Y158.470 E0.01676
G1 X106.041 Y164.255 E0.25682
G1 X105.507 Y164.255 E0.01676
G1 X99.722 Y158.470 E0.25682
G1 X99.188 Y158.470 E0.01676
G1 X104.973 Y164.255 E0.25682
G1 X104.439 Y164.255 E0.01676
G1 X98.654 Y158.470 E0.25682
G1 X98.120 Y158.470 E0.01676
G1 X103.905 Y164.255 E0.25682
G1 X103.371 Y164.255 E0.01676
G1 X97.586 Y158.470 E0.25682
G1 X97.052 Y158.470 E0.01676
G1 X102.837 Y164.255 E0.25682
G1 X102.303 Y164.255 E0.01676
G1 X96.518 Y158.470 E0.25682
G1 X95.984 Y158.470 E0.01676
G1 X101.770 Y164.255 E0.25682
G1 X101.236 Y164.255 E0.01676
G1 X95.451 Y158.470 E0.25682
G1 X94.917 Y158.470 E0.01676
G1 X100.702 Y164.255 E0.25682
G1 X100.168 Y164.255 E0.01676
G1 X94.383 Y158.470 E0.25682
G1 X93.849 Y158.470 E0.01676
G1 X99.634 Y164.255 E0.25682
G1 X99.100 Y164.255 E0.01676
G1 X93.315 Y158.470 E0.25682
G1 X92.781 Y158.470 E0.01676
G1 X98.566 Y164.255 E0.25682
G1 X98.032 Y164.255 E0.01676
G1 X92.247 Y158.470 E0.25682
G1 X91.713 Y158.470 E0.01676
G1 X97.498 Y164.255 E0.25682
G1 X96.965 Y164.255 E0.01676
G1 X91.179 Y158.470 E0.25682
G1 X90.646 Y158.470 E0.01676
G1 X96.431 Y164.255 E0.25682
G1 X95.897 Y164.255 E0.01676
G1 X90.112 Y158.470 E0.25682
G1 X89.578 Y158.470 E0.01676
G1 X95.363 Y164.255 E0.25682
G1 X94.829 Y164.255 E0.01676
G1 X89.044 Y158.470 E0.25682
G1 X88.510 Y158.470 E0.01676
G1 X94.295 Y164.255 E0.25682
M73 Q1 S136
M73 P1 R135
G1 X93.761 Y164.255 E0.01676
G1 X87.976 Y158.470 E0.25682
G1 X87.442 Y158.470 E0.01676
G1 X93.227 Y164.255 E0.25682
G1 X92.693 Y164.255 E0.01676
G1 X86.908 Y158.470 E0.25682
G1 X86.374 Y158.470 E0.01676
G1 X92.160 Y164.255 E0.25682
G1 X91.626 Y164.255 E0.01676
G1 X85.841 Y158.470 E0.25682
G1 X85.307 Y158.470 E0.01676
G1 X91.092 Y164.255 E0.25682
G1 X90.558 Y164.255 E0.01676
G1 X84.795 Y158.492 E0.25584
G1 X84.795 Y159.026 E0.01676
G1 X90.024 Y164.255 E0.23214
G1 X89.490 Y164.255 E0.01676
G1 X84.795 Y159.560 E0.20843
G1 X84.795 Y160.094 E0.01676
G1 X88.956 Y164.255 E0.18473
G1 X88.422 Y164.255 E0.01676
G1 X84.795 Y160.628 E0.16103
G1 X84.795 Y161.162 E0.01676
G1 X87.888 Y164.255 E0.13733
G1 X87.355 Y164.255 E0.01676
G1 X84.795 Y161.695 E0.11363
G1 X84.795 Y162.229 E0.01676
G1 X86.821 Y164.255 E0.08993
G1 X86.287 Y164.255 E0.01676
G1 X84.795 Y162.763 E0.06623
G1 X84.795 Y163.297 E0.01676
G1 X85.753 Y164.255 E0.04253
G1 X85.219 Y164.255 E0.01676
G1 X84.625 Y163.661 E0.02636
G1 F8640.000
G1 X85.219 Y164.255 E-0.19390
G1 X85.753 Y164.255 E-0.12328
G1 X84.795 Y163.297 E-0.31283
G1 X84.795 Y162.763 E-0.12328
G1 X84.815 Y162.784 E-0.00672
G1 E-0.04000 F2100.00000
G1 Z0.800 F10800.000
G1 X84.625 Y151.382
G1 Z0.200
G1 E0.80000 F2100.00000
G1 F1200.000
G1 X84.798 Y151.555 E0.00769
G1 X85.332 Y151.555 E0.01676
G1 X84.795 Y151.018 E0.02386
G1 X84.795 Y150.484 E0.01676
G1 X85.866 Y151.555 E0.04756
G1 X86.400 Y151.555 E0.01676
G1 X84.795 Y149.950 E0.07126
G1 X84.795 Y149.416 E0.01676
G1 X86.934 Y151.555 E0.09496
G1 X87.468 Y151.555 E0.01676
G1 X84.795 Y148.882 E0.11866
G1 X84.795 Y148.348 E0.01676
G1 X88.002 Y151.555 E0.14236
G1 X88.536 Y151.555 E0.01676
G1 X84.795 Y147.814 E0.16606
G1 X84.795 Y147.280 E0.01676
G1 X89.070 Y151.555 E0.18976
G1 X89.603 Y151.555 E0.01676
G1 X84.795 Y146.747 E0.21347
G1 X84.795 Y146.213 E0.01676
G1 X90.137 Y151.555 E0.23717
G1 X90.671 Y151.555 E0.01676
G1 X84.795 Y145.679 E0.26087
G1 X84.795 Y145.145 E0.01676
G1 X91.205 Y151.555 E0.28457
G1 X91.739 Y151.555 E0.01676
G1 X84.795 Y144.611 E0.30827
G1 X84.795 Y144.077 E0.01676
G1 X92.273 Y151.555 E0.33197
G1 X92.807 Y151.555 E0.01676
G1 X84.795 Y143.543 E0.35567
G1 X84.795 Y143.009 E0.01676
G1 X93.341 Y151.555 E0.37937
G1 X93.875 Y151.555 E0.01676
G1 X84.795 Y142.475 E0.40307
G1 X84.795 Y141.942 E0.01676
G1 X94.408 Y151.555 E0.42677
G1 X94.942 Y151.555 E0.01676
G1 X84.795 Y141.408 E0.45047
G1 X84.795 Y140.874 E0.01676
G1 X95.476 Y151.555 E0.47418
G1 X96.010 Y151.555 E0.01676
G1 X84.795 Y140.340 E0.49788
G1 X84.795 Y139.806 E0.01676
G1 X96.544 Y151.555 E0.52158
G1 X97.078 Y151.555 E0.01676
G1 X84.795 Y139.272 E0.54528
G1 X84.795 Y138.738 E0.01676
G1 X97.612 Y151.555 E0.56898
G1 X98.146 Y151.555 E0.01676
G1 X84.795 Y138.204 E0.59268
G1 X84.795 Y137.670 E0.01676
G1 X98.680 Y151.555 E0.61638
G1 X99.213 Y151.555 E0.01676
G1 X84.795 Y137.137 E0.64008
G1 X84.795 Y136.603 E0.01676
G1 X99.747 Y151.555 E0.66378
G1 X100.281 Y151.555 E0.01676
G1 X84.795 Y136.069 E0.68748
G1 X84.795 Y135.535 E0.01676
G1 X100.815 Y151.555 E0.71118
G1 X101.349 Y151.555 E0.01676
G1 X84.795 Y135.001 E0.73488
G1 X84.795 Y134.467 E0.01676
G1 X101.883 Y151.555 E0.75859
G1 X102.417 Y151.555 E0.01676
G1 X84.795 Y133.933 E0.78229
G1 X84.795 Y133.399 E0.01676
G1 X102.951 Y151.555 E0.80599
G1 X103.485 Y151.555 E0.01676
G1 X84.795 Y132.865 E0.82969
G1 X84.795 Y132.332 E0.01676
G1 X104.018 Y151.555 E0.85339
G1 X104.552 Y151.555 E0.01676
G1 X84.795 Y131.798 E0.87709
G1 X84.795 Y131.264 E0.01676
G1 X105.086 Y151.555 E0.90079
G1 X105.620 Y151.555 E0.01676
G1 X84.795 Y130.730 E0.92449
G1 X84.795 Y130.196 E0.01676
G1 X106.154 Y151.555 E0.94819
G1 X106.688 Y151.555 E0.01676
G1 X84.795 Y129.662 E0.97189
G1 X84.795 Y129.128 E0.01676
G1 X107.222 Y151.555 E0.99559
G1 X107.756 Y151.555 E0.01676
G1 X84.795 Y128.594 E1.01930
G1 X84.795 Y128.060 E0.01676
G1 X108.290 Y151.555 E1.04300
G1 X108.823 Y151.555 E0.01676
G1 X84.795 Y127.527 E1.06670
G1 X84.795 Y126.993 E0.01676
G1 X109.357 Y151.555 E1.09040
G1 X109.891 Y151.555 E0.01676
G1 X84.795 Y126.459 E1.11410
G1 X84.795 Y125.925 E0.01676
G1 X110.425 Y151.555 E1.13780
G1 X110.959 Y151.555 E0.01676
G1 X84.795 Y125.391 E1.16150
G1 X84.795 Y124.857 E0.01676
G1 X111.493 Y151.555 E1.18520
G1 X112.027 Y151.555 E0.01676
G1 X84.795 Y124.323 E1.20890
G1 X84.795 Y123.789 E0.01676
G1 X112.561 Y151.555 E1.23260
M73 Q2 S135
M73 P2 R134
G1 X113.094 Y151.555 E0.01676
G1 X84.795 Y123.256 E1.25630
G1 X84.795 Y122.722 E0.01676
G1 X113.628 Y151.555 E1.28001
G1 X114.162 Y151.555 E0.01676
G1 X84.795 Y122.188 E1.30371
G1 X84.795 Y121.654 E0.01676
G1 X127.396 Y164.255 E1.89120
G1 X127.930 Y164.255 E0.01676
G1 X84.795 Y121.120 E1.91490
G1 X84.795 Y120.586 E0.01676
G1 X128.464 Y164.255 E1.93860
G1 X128.998 Y164.255 E0.01676
G1 X84.795 Y120.052 E1.96230
G1 X84.795 Y119.518 E0.01676
G1 X129.532 Y164.255 E1.98600
G1 X130.066 Y164.255 E0.01676
G1 X84.795 Y118.984 E2.00970
G1 X84.795 Y118.451 E0.01676
G1 X130.769 Y164.425 E2.04094
G1 F8640.000
G1 X128.442 Y162.097 E-0.76000
G1 E-0.04000 F2100.00000
G1 Z0.800 F10800.000
G1 X120.167 Y119.654
G1 Z0.200
G1 E0.80000 F2100.00000
G1 F1200.000
G1 X115.808 Y115.295 E0.19350
G1 X116.251 Y115.204 E0.01419
G1 X120.511 Y119.464 E0.18913
G1 X121.017 Y119.436 E0.01589
G1 X116.415 Y114.834 E0.20428
G1 X116.548 Y114.434 E0.01325
G1 X121.522 Y119.407 E0.22080
G1 X122.027 Y119.379 E0.01589
G1 X116.682 Y114.033 E0.23731
G1 X116.815 Y113.632 E0.01325
G1 X122.533 Y119.350 E0.25383
G1 X123.038 Y119.322 E0.01589
G1 X116.948 Y113.232 E0.27035
G1 X117.081 Y112.831 E0.01325
G1 X123.543 Y119.293 E0.28687
G1 X124.049 Y119.264 E0.01589
G1 X117.215 Y112.430 E0.30339
G1 X117.348 Y112.030 E0.01325
G1 X124.554 Y119.236 E0.31991
G1 X125.059 Y119.207 E0.01589
G1 X117.481 Y111.629 E0.33642
G1 X117.614 Y111.228 E0.01325
G1 X125.565 Y119.179 E0.35294
G1 X126.070 Y119.150 E0.01589
G1 X117.748 Y110.828 E0.36946
G1 X117.881 Y110.427 E0.01325
G1 X126.575 Y119.122 E0.38598
G1 X127.081 Y119.093 E0.01589
G1 X118.014 Y110.026 E0.40250
G1 X118.147 Y109.626 E0.01325
G1 X127.586 Y119.065 E0.41902
G1 X128.092 Y119.036 E0.01589
G1 X118.281 Y109.225 E0.43554
G1 X118.414 Y108.825 E0.01325
G1 X128.597 Y119.008 E0.45205
G1 X129.102 Y118.979 E0.01589
G1 X118.547 Y108.424 E0.46857
G1 X118.680 Y108.023 E0.01325
G1 X129.608 Y118.950 E0.48509
G1 X130.113 Y118.922 E0.01589
G1 X118.814 Y107.623 E0.50161
G1 X118.947 Y107.222 E0.01325
G1 X130.618 Y118.893 E0.51813
G1 X131.124 Y118.865 E0.01589
G1 X119.080 Y106.821 E0.53465
G1 X119.213 Y106.421 E0.01325
G1 X131.629 Y118.836 E0.55117
G1 X132.134 Y118.808 E0.01589
G1 X119.347 Y106.020 E0.56768
G1 X119.480 Y105.619 E0.01325
G1 X132.640 Y118.779 E0.58420
G1 X133.145 Y118.751 E0.01589
G1 X119.613 Y105.219 E0.60072
G1 X119.746 Y104.818 E0.01325
G1 X133.811 Y118.883 E0.62438
G1 F8640.000
G1 X131.484 Y116.556 E-0.76000
G1 E-0.04000 F2100.00000
G1 Z0.800 F10800.000
G1 X165.375 Y121.617
G1 Z0.200
G1 E0.80000 F2100.00000
G1 F1200.000
G1 X126.941 Y83.183 E1.70618
G1 X126.808 Y83.584 E0.01325
G1 X165.205 Y121.981 E1.70456
G1 X165.205 Y122.515 E0.01676
G1 X126.675 Y83.984 E1.71047
G1 X126.542 Y84.385 E0.01325
G1 X165.205 Y123.049 E1.71639
G1 X165.205 Y123.583 E0.01676
G1 X126.408 Y84.786 E1.72230
M73 Q3 S134
M73 P3 R133
G1 X126.275 Y85.186 E0.01325
G1 X165.205 Y124.116 E1.72822
G1 X165.205 Y124.650 E0.01676
G1 X126.142 Y85.587 E1.73413
G1 X126.009 Y85.988 E0.01325
G1 X165.205 Y125.184 E1.74005
G1 X165.205 Y125.718 E0.01676
G1 X125.875 Y86.388 E1.74596
G1 X125.742 Y86.789 E0.01325
G1 X165.205 Y126.252 E1.75188
G1 X165.205 Y126.786 E0.01676
G1 X125.609 Y87.190 E1.75779
G1 X125.476 Y87.590 E0.01325
G1 X165.205 Y127.320 E1.76371
G1 X165.205 Y127.854 E0.01676
G1 X125.342 Y87.991 E1.76962
G1 X125.209 Y88.392 E0.01325
G1 X165.205 Y128.387 E1.77554
G1 X165.205 Y128.921 E0.01676
G1 X125.076 Y88.792 E1.78145
G1 X124.943 Y89.193 E0.01325
G1 X165.205 Y129.455 E1.78737
G1 X165.205 Y129.989 E0.01676
