; generated by PrusaSlicer 2.2.0+ on 2021-04-18 at 13:57:34 UTC

; 

; external perimeters extrusion width = 0.45mm
; perimeters extrusion width = 0.45mm
; infill extrusion width = 0.45mm
; solid infill extrusion width = 0.45mm
; top infill extrusion width = 0.40mm
; first layer extrusion width = 0.42mm

M73 P0 R45
M73 Q0 S45
M201 X1000 Y1000 Z1000 E5000 ; sets maximum accelerations, mm/sec^2
M203 X200 Y200 Z12 E120 ; sets maximum feedrates, mm/sec
M204 P1250 R1250 T1250 ; sets acceleration (P, T) and retract acceleration (R), mm/sec^2
M205 X8.00 Y8.00 Z0.40 E4.50 ; sets the jerk limits, mm/sec
M205 S0 T0 ; sets the minimum extruding and travel feed rate, mm/sec
M107
M862.3 P "MK3S" ; printer model check
M862.1 P0.4 ; nozzle diameter check
M115 U3.8.1 ; tell printer latest fw version
G90 ; use absolute coordinates
M83 ; extruder relative mode
M104 S215 ; set extruder temp
M140 S60 ; set bed temp
M190 S60 ; wait for bed temp
M109 S215 ; wait for extruder temp
G28 W ; home all without mesh bed level
G80 ; mesh bed leveling
G1 Y-3.0 F1000.0 ; go outside print area
G92 E0.0
G1 X60.0 E9.0 F1000.0 ; intro line
M73 Q0 S45
M73 P0 R45
G1 X100.0 E12.5 F1000.0 ; intro line
G92 E0.0
M221 S95
G21 ; set units to millimeters
G90 ; use absolute coordinates
M83 ; use relative distances for extrusion
M900 K30 ; Filament gcode
;BEFORE_LAYER_CHANGE
G92 E0.0
;0.2


G1 E-0.80000 F2100.00000
G1 Z0.600 F10800.000
;AFTER_LAYER_CHANGE
;0.2
G1 X181.674 Y82.514
G1 Z0.200
G1 E0.80000 F2100.00000
M204 S1000
G1 F1200.000
G1 X181.877 Y83.434 E0.02954
G1 X181.877 Y111.654 E0.88483
G1 X181.819 Y112.156 E0.01585
G1 X181.656 Y112.635 E0.01585
G1 X181.270 Y113.221 E0.02201
G1 X154.459 Y143.014 E1.25668
G1 X154.022 Y143.391 E0.01811
G1 X153.510 Y143.650 E0.01799
G1 X152.708 Y143.792 E0.02555
G1 X97.296 Y143.792 E1.73738
G1 X96.786 Y143.736 E0.01609
G1 X96.300 Y143.571 E0.01609
G1 X95.827 Y143.281 E0.01740
G1 X69.012 Y122.028 E1.07282
G1 X68.590 Y121.590 E0.01906
G1 X68.294 Y121.060 E0.01906
G1 X68.123 Y120.183 E0.02802
G1 X68.123 Y74.931 E1.41883
G1 X68.179 Y74.421 E0.01609
G1 X68.344 Y73.935 E0.01609
G1 X68.663 Y73.427 E0.01882
G1 X69.102 Y73.012 E0.01894
G1 X69.632 Y72.722 E0.01894
G1 X70.214 Y72.575 E0.01882
G1 X127.758 Y66.220 E1.81522
G1 X132.237 Y66.208 E0.14044
G1 X132.942 Y66.316 E0.02237
G1 X180.221 Y81.210 E1.55422
G1 X180.704 Y81.425 E0.01657
G1 X181.127 Y81.742 E0.01657
G1 X181.639 Y82.465 E0.02778
G1 F8640.000
G1 X181.877 Y83.434 E-0.23037
G1 X181.877 Y85.727 E-0.52963
G1 E-0.04000 F2100.00000
G1 Z0.800 F10800.000
G1 X131.446 Y76.688
G1 Z0.200
G1 E0.80000 F2100.00000
G1 F1200.000
G1 X128.787 Y76.688 E0.08338
G1 X128.787 Y69.372 E0.22938
G1 X131.446 Y69.372 E0.08338
G1 X131.446 Y76.628 E0.22750
G1 X131.823 Y77.065 F10800.000
G1 F1200.000
G1 X128.410 Y77.065 E0.10702
G1 X128.410 Y68.995 E0.25303
G1 X131.823 Y68.995 E0.10702
G1 X131.823 Y77.005 E0.25115
G1 X131.453 Y76.913 F10800.000
G1 F8640.000
G1 X128.532 Y77.063 E-0.76000
G1 E-0.04000 F2100.00000
G1 Z0.800 F10800.000
G1 X131.333 Y70.294
G1 Z0.200
G1 E0.80000 F2100.00000
G1 F1200.000
G1 X130.694 Y69.655 E0.03002
G1 X130.129 Y69.655 E0.01874
G1 X131.163 Y70.689 E0.04856
G1 X131.163 Y71.254 E0.01874
G1 X129.564 Y69.655 E0.07507
G1 X129.070 Y69.655 E0.01642
G1 X129.070 Y69.725 E0.00233
G1 X131.163 Y71.819 E0.09828
G1 X131.163 Y72.383 E0.01874
G1 X129.070 Y70.290 E0.09828
G1 X129.070 Y70.854 E0.01874
G1 X131.163 Y72.948 E0.09828
G1 X131.163 Y73.512 E0.01874
G1 X129.070 Y71.419 E0.09828
G1 X129.070 Y71.983 E0.01874
G1 X131.163 Y74.077 E0.09828
G1 X131.163 Y74.641 E0.01874
G1 X129.070 Y72.548 E0.09828
G1 X129.070 Y73.112 E0.01874
G1 X131.163 Y75.206 E0.09828
G1 X131.163 Y75.771 E0.01874
G1 X129.070 Y73.677 E0.09828
G1 X129.070 Y74.242 E0.01874
G1 X131.163 Y76.335 E0.09828
G1 X131.163 Y76.405 E0.00232
G1 X130.669 Y76.405 E0.01642
G1 X129.070 Y74.806 E0.07506
G1 X129.070 Y75.371 E0.01874
G1 X130.104 Y76.405 E0.04856
G1 X129.540 Y76.405 E0.01874
G1 X128.900 Y75.766 E0.03002
G1 F8640.000
G1 X129.540 Y76.405 E-0.20880
G1 X130.104 Y76.405 E-0.13036
G1 X129.070 Y75.371 E-0.33775
G1 X129.070 Y75.011 E-0.08308
G1 E-0.04000 F2100.00000
G1 Z0.800 F10800.000
G1 X128.900 Y84.262
G1 Z0.200
G1 E0.80000 F2100.00000
G1 F1200.000
G1 X178.713 Y84.262 E1.56184
G1 X178.713 Y85.228 E0.03028
G1 X128.787 Y85.228 E1.56539
G1 X128.787 Y84.262 E0.03028
G1 X128.840 Y84.262 E0.00167
G1 X128.410 Y83.885 F10800.000
G1 F1200.000
G1 X179.090 Y83.885 E1.58904
G1 X179.090 Y85.605 E0.05393
G1 X128.410 Y85.605 E1.58904
G1 X128.410 Y83.945 E0.05205
G1 X128.810 Y83.890 F10800.000
G1 F8640.000
G1 X131.701 Y83.941 E-0.76000
G1 E-0.04000 F2100.00000
G1 Z0.800 F10800.000
G1 X178.571 Y85.115
G1 Z0.200
G1 E0.80000 F2100.00000
G1 F1200.000
G1 X178.001 Y84.545 E0.02547
G1 X177.464 Y84.545 E0.01698
G1 X177.864 Y84.945 E0.01788
G1 X177.327 Y84.945 E0.01698
G1 X176.926 Y84.545 E0.01788
G1 X176.389 Y84.545 E0.01698
G1 X176.789 Y84.945 E0.01788
G1 X176.252 Y84.945 E0.01698
G1 X175.851 Y84.545 E0.01788
G1 X175.314 Y84.545 E0.01698
G1 X175.714 Y84.945 E0.01788
G1 X175.177 Y84.945 E0.01698
G1 X174.777 Y84.545 E0.01788
G1 X174.239 Y84.545 E0.01698
G1 X174.640 Y84.945 E0.01788
G1 X174.102 Y84.945 E0.01698
G1 X173.702 Y84.545 E0.01788
G1 X173.165 Y84.545 E0.01698
G1 X173.565 Y84.945 E0.01788
G1 X173.027 Y84.945 E0.01698
G1 X172.627 Y84.545 E0.01788
G1 X172.090 Y84.545 E0.01698
G1 X172.490 Y84.945 E0.01788
G1 X171.953 Y84.945 E0.01698
G1 X171.552 Y84.545 E0.01788
G1 X171.015 Y84.545 E0.01698
G1 X171.415 Y84.945 E0.01788
G1 X170.878 Y84.945 E0.01698
G1 X170.478 Y84.545 E0.01788
G1 X169.940 Y84.545 E0.01698
G1 X170.340 Y84.945 E0.01788
G1 X169.803 Y84.945 E0.01698
G1 X169.403 Y84.545 E0.01788
G1 X168.865 Y84.545 E0.01698
G1 X169.266 Y84.945 E0.01788
G1 X168.728 Y84.945 E0.01698
G1 X168.328 Y84.545 E0.01788
G1 X167.791 Y84.545 E0.01698
G1 X168.191 Y84.945 E0.01788
G1 X167.654 Y84.945 E0.01698
G1 X167.253 Y84.545 E0.01788
G1 X166.716 Y84.545 E0.01698
G1 X167.116 Y84.945 E0.01788
G1 X166.579 Y84.945 E0.01698
G1 X166.178 Y84.545 E0.01788
G1 X165.641 Y84.545 E0.01698
G1 X166.041 Y84.945 E0.01788
G1 X165.504 Y84.945 E0.01698
G1 X165.104 Y84.545 E0.01788
G1 X164.566 Y84.545 E0.01698
G1 X164.967 Y84.945 E0.01788
G1 X164.429 Y84.945 E0.01698
G1 X164.029 Y84.545 E0.01788
G1 X163.492 Y84.545 E0.01698
G1 X163.892 Y84.945 E0.01788
G1 X163.354 Y84.945 E0.01698
G1 X162.954 Y84.545 E0.01788
G1 X162.417 Y84.545 E0.01698
G1 X162.817 Y84.945 E0.01788
G1 X162.280 Y84.945 E0.01698
G1 X161.879 Y84.545 E0.01788
G1 X161.342 Y84.545 E0.01698
G1 X161.742 Y84.945 E0.01788
G1 X161.205 Y84.945 E0.01698
G1 X160.805 Y84.545 E0.01788
G1 X160.267 Y84.545 E0.01698
G1 X160.667 Y84.945 E0.01788
G1 X160.130 Y84.945 E0.01698
G1 X159.730 Y84.545 E0.01788
G1 X159.192 Y84.545 E0.01698
G1 X159.593 Y84.945 E0.01788
G1 X159.055 Y84.945 E0.01698
G1 X158.655 Y84.545 E0.01788
G1 X158.118 Y84.545 E0.01698
G1 X158.518 Y84.945 E0.01788
G1 X157.981 Y84.945 E0.01698
G1 X157.580 Y84.545 E0.01788
G1 X157.043 Y84.545 E0.01698
G1 X157.443 Y84.945 E0.01788
G1 X156.906 Y84.945 E0.01698
G1 X156.506 Y84.545 E0.01788
G1 X155.968 Y84.545 E0.01698
G1 X156.368 Y84.945 E0.01788
G1 X155.831 Y84.945 E0.01698
G1 X155.431 Y84.545 E0.01788
G1 X154.893 Y84.545 E0.01698
G1 X155.294 Y84.945 E0.01788
G1 X154.756 Y84.945 E0.01698
G1 X154.356 Y84.545 E0.01788
G1 X153.819 Y84.545 E0.01698
G1 X154.219 Y84.945 E0.01788
G1 X153.681 Y84.945 E0.01698
G1 X153.281 Y84.545 E0.01788
G1 X152.744 Y84.545 E0.01698
G1 X153.144 Y84.945 E0.01788
G1 X152.607 Y84.945 E0.01698
G1 X152.206 Y84.545 E0.01788
G1 X151.669 Y84.545 E0.01698
G1 X152.069 Y84.945 E0.01788
G1 X151.532 Y84.945 E0.01698
G1 X151.132 Y84.545 E0.01788
G1 X150.594 Y84.545 E0.01698
G1 X150.994 Y84.945 E0.01788
G1 X150.457 Y84.945 E0.01698
G1 X150.057 Y84.545 E0.01788
G1 X149.519 Y84.545 E0.01698
G1 X149.920 Y84.945 E0.01788
G1 X149.382 Y84.945 E0.01698
G1 X148.982 Y84.545 E0.01788
G1 X148.445 Y84.545 E0.01698
G1 X148.845 Y84.945 E0.01788
G1 X148.308 Y84.945 E0.01698
G1 X147.907 Y84.545 E0.01788
G1 X147.370 Y84.545 E0.01698
G1 X147.770 Y84.945 E0.01788
G1 X147.233 Y84.945 E0.01698
G1 X146.833 Y84.545 E0.01788
G1 X146.295 Y84.545 E0.01698
G1 X146.695 Y84.945 E0.01788
G1 X146.158 Y84.945 E0.01698
G1 X145.758 Y84.545 E0.01788
G1 X145.220 Y84.545 E0.01698
G1 X145.621 Y84.945 E0.01788
G1 X145.083 Y84.945 E0.01698
G1 X144.683 Y84.545 E0.01788
G1 X144.146 Y84.545 E0.01698
G1 X144.546 Y84.945 E0.01788
G1 X144.008 Y84.945 E0.01698
G1 X143.608 Y84.545 E0.01788
G1 X143.071 Y84.545 E0.01698
G1 X143.471 Y84.945 E0.01788
G1 X142.934 Y84.945 E0.01698
G1 X142.533 Y84.545 E0.01788
G1 X141.996 Y84.545 E0.01698
G1 X142.396 Y84.945 E0.01788
G1 X141.859 Y84.945 E0.01698
G1 X141.459 Y84.545 E0.01788
G1 X140.921 Y84.545 E0.01698
G1 X141.321 Y84.945 E0.01788
G1 X140.784 Y84.945 E0.01698
G1 X140.384 Y84.545 E0.01788
G1 X139.846 Y84.545 E0.01698
G1 X140.247 Y84.945 E0.01788
G1 X139.709 Y84.945 E0.01698
G1 X139.309 Y84.545 E0.01788
G1 X138.772 Y84.545 E0.01698
G1 X139.172 Y84.945 E0.01788
G1 X138.635 Y84.945 E0.01698
G1 X138.234 Y84.545 E0.01788
G1 X137.697 Y84.545 E0.01698
G1 X138.097 Y84.945 E0.01788
G1 X137.560 Y84.945 E0.01698
G1 X137.160 Y84.545 E0.01788
G1 X136.622 Y84.545 E0.01698
G1 X137.022 Y84.945 E0.01788
G1 X136.485 Y84.945 E0.01698
G1 X136.085 Y84.545 E0.01788
G1 X135.547 Y84.545 E0.01698
G1 X135.948 Y84.945 E0.01788
G1 X135.410 Y84.945 E0.01698
G1 X135.010 Y84.545 E0.01788
G1 X134.473 Y84.545 E0.01698
G1 X134.873 Y84.945 E0.01788
G1 X134.335 Y84.945 E0.01698
G1 X133.935 Y84.545 E0.01788
G1 X133.398 Y84.545 E0.01698
G1 X133.798 Y84.945 E0.01788
G1 X133.261 Y84.945 E0.01698
G1 X132.860 Y84.545 E0.01788
G1 X132.323 Y84.545 E0.01698
G1 X132.723 Y84.945 E0.01788
G1 X132.186 Y84.945 E0.01698
G1 X131.786 Y84.545 E0.01788
G1 X131.248 Y84.545 E0.01698
G1 X131.648 Y84.945 E0.01788
G1 X131.111 Y84.945 E0.01698
G1 X130.711 Y84.545 E0.01788
G1 X130.173 Y84.545 E0.01698
G1 X130.574 Y84.945 E0.01788
G1 X130.036 Y84.945 E0.01698
G1 X129.636 Y84.545 E0.01788
G1 X129.099 Y84.545 E0.01698
G1 X129.669 Y85.115 E0.02547
G1 F8640.000
G1 X129.099 Y84.545 E-0.18611
G1 X129.636 Y84.545 E-0.12408
G1 X130.036 Y84.945 E-0.13070
G1 X130.574 Y84.945 E-0.12408
G1 X130.173 Y84.545 E-0.13070
G1 X130.452 Y84.545 E-0.06433
G1 E-0.04000 F2100.00000
G1 Z0.800 F10800.000
G1 X128.787 Y92.802
G1 Z0.200
G1 E0.80000 F2100.00000
G1 F1200.000
G1 X178.713 Y92.802 E1.56539
G1 X178.713 Y93.768 E0.03028
G1 X128.787 Y93.768 E1.56539
G1 X128.787 Y92.862 E0.02840
G1 X128.410 Y92.425 F10800.000
G1 F1200.000
G1 X179.090 Y92.425 E1.58904
G1 X179.090 Y94.145 E0.05393
G1 X128.410 Y94.145 E1.58904
G1 X128.410 Y92.485 E0.05205
G1 X128.810 Y92.430 F10800.000
G1 F8640.000
G1 X131.701 Y92.481 E-0.76000
G1 E-0.04000 F2100.00000
G1 Z0.800 F10800.000
G1 X178.571 Y93.655
G1 Z0.200
G1 E0.80000 F2100.00000
G1 F1200.000
G1 X178.001 Y93.085 E0.02547
G1 X177.464 Y93.085 E0.01698
G1 X177.864 Y93.485 E0.01788
G1 X177.327 Y93.485 E0.01698
G1 X176.926 Y93.085 E0.01788
G1 X176.389 Y93.085 E0.01698
G1 X176.789 Y93.485 E0.01788
G1 X176.252 Y93.485 E0.01698
G1 X175.851 Y93.085 E0.01788
G1 X175.314 Y93.085 E0.01698
G1 X175.714 Y93.485 E0.01788
G1 X175.177 Y93.485 E0.01698
G1 X174.777 Y93.085 E0.01788
G1 X174.239 Y93.085 E0.01698
G1 X174.640 Y93.485 E0.01788
G1 X174.102 Y93.485 E0.01698
G1 X173.702 Y93.085 E0.01788
G1 X173.165 Y93.085 E0.01698
G1 X173.565 Y93.485 E0.01788
G1 X173.027 Y93.485 E0.01698
G1 X172.627 Y93.085 E0.01788
G1 X172.090 Y93.085 E0.01698
G1 X172.490 Y93.485 E0.01788
G1 X171.953 Y93.485 E0.01698
G1 X171.552 Y93.085 E0.01788
G1 X171.015 Y93.085 E0.01698
G1 X171.415 Y93.485 E0.01788
G1 X170.878 Y93.485 E0.01698
G1 X170.478 Y93.085 E0.01788
G1 X169.940 Y93.085 E0.01698
G1 X170.340 Y93.485 E0.01788
G1 X169.803 Y93.485 E0.01698
G1 X169.403 Y93.085 E0.01788
G1 X168.865 Y93.085 E0.01698
G1 X169.266 Y93.485 E0.01788
G1 X168.728 Y93.485 E0.01698
G1 X168.328 Y93.085 E0.01788
G1 X167.791 Y93.085 E0.01698
G1 X168.191 Y93.485 E0.01788
G1 X167.654 Y93.485 E0.01698
G1 X167.253 Y93.085 E0.01788
G1 X166.716 Y93.085 E0.01698
G1 X167.116 Y93.485 E0.01788
G1 X166.579 Y93.485 E0.01698
G1 X166.178 Y93.085 E0.01788
G1 X165.641 Y93.085 E0.01698
G1 X166.041 Y93.485 E0.01788
G1 X165.504 Y93.485 E0.01698
G1 X165.104 Y93.085 E0.01788
G1 X164.566 Y93.085 E0.01698
G1 X164.967 Y93.485 E0.01788
G1 X164.429 Y93.485 E0.01698
G1 X164.029 Y93.085 E0.01788
G1 X163.492 Y93.085 E0.01698
G1 X163.892 Y93.485 E0.01788
G1 X163.354 Y93.485 E0.01698
G1 X162.954 Y93.085 E0.01788
G1 X162.417 Y93.085 E0.01698
G1 X162.817 Y93.485 E0.01788
G1 X162.280 Y93.485 E0.01698
G1 X161.879 Y93.085 E0.01788
G1 X161.342 Y93.085 E0.01698
G1 X161.742 Y93.485 E0.01788
G1 X161.205 Y93.485 E0.01698
G1 X160.805 Y93.085 E0.01788
G1 X160.267 Y93.085 E0.01698
G1 X160.667 Y93.485 E0.01788
G1 X160.130 Y93.485 E0.01698
G1 X159.730 Y93.085 E0.01788
G1 X159.192 Y93.085 E0.01698
G1 X159.593 Y93.485 E0.01788
G1 X159.055 Y93.485 E0.01698
G1 X158.655 Y93.085 E0.01788
G1 X158.118 Y93.085 E0.01698
G1 X158.518 Y93.485 E0.01788
G1 X157.981 Y93.485 E0.01698
G1 X157.580 Y93.085 E0.01788
G1 X157.043 Y93.085 E0.01698
G1 X157.443 Y93.485 E0.01788
G1 X156.906 Y93.485 E0.01698
G1 X156.506 Y93.085 E0.01788
G1 X155.968 Y93.085 E0.01698
G1 X156.368 Y93.485 E0.01788
G1 X155.831 Y93.485 E0.01698
G1 X155.431 Y93.085 E0.01788
G1 X154.893 Y93.085 E0.01698
G1 X155.294 Y93.485 E0.01788
G1 X154.756 Y93.485 E0.01698
G1 X154.356 Y93.085 E0.01788
G1 X153.819 Y93.085 E0.01698
G1 X154.219 Y93.485 E0.01788
G1 X153.681 Y93.485 E0.01698
G1 X153.281 Y93.085 E0.01788
G1 X152.744 Y93.085 E0.01698
G1 X153.144 Y93.485 E0.01788
G1 X152.607 Y93.485 E0.01698
G1 X152.206 Y93.085 E0.01788
G1 X151.669 Y93.085 E0.01698
G1 X152.069 Y93.485 E0.01788
G1 X151.532 Y93.485 E0.01698
G1 X151.132 Y93.085 E0.01788
G1 X150.594 Y93.085 E0.01698
G1 X150.994 Y93.485 E0.01788
G1 X150.457 Y93.485 E0.01698
G1 X150.057 Y93.085 E0.01788
G1 X149.519 Y93.085 E0.01698
G1 X149.920 Y93.485 E0.01788
G1 X149.382 Y93.485 E0.01698
G1 X148.982 Y93.085 E0.01788
G1 X148.445 Y93.085 E0.01698
G1 X148.845 Y93.485 E0.01788
G1 X148.308 Y93.485 E0.01698
G1 X147.907 Y93.085 E0.01788
G1 X147.370 Y93.085 E0.01698
G1 X147.770 Y93.485 E0.01788
G1 X147.233 Y93.485 E0.01698
G1 X146.833 Y93.085 E0.01788
G1 X146.295 Y93.085 E0.01698
G1 X146.695 Y93.485 E0.01788
G1 X146.158 Y93.485 E0.01698
G1 X145.758 Y93.085 E0.01788
G1 X145.220 Y93.085 E0.01698
G1 X145.621 Y93.485 E0.01788
G1 X145.083 Y93.485 E0.01698
G1 X144.683 Y93.085 E0.01788
G1 X144.146 Y93.085 E0.01698
G1 X144.546 Y93.485 E0.01788
G1 X144.008 Y93.485 E0.01698
G1 X143.608 Y93.085 E0.01788
G1 X143.071 Y93.085 E0.01698
G1 X143.471 Y93.485 E0.01788
M73 Q2 S44
G1 X142.934 Y93.485 E0.01698
G1 X142.533 Y93.085 E0.01788
G1 X141.996 Y93.085 E0.01698
G1 X142.396 Y93.485 E0.01788
G1 X141.859 Y93.485 E0.01698
G1 X141.459 Y93.085 E0.01788
G1 X140.921 Y93.085 E0.01698
G1 X141.321 Y93.485 E0.01788
G1 X140.784 Y93.485 E0.01698
G1 X140.384 Y93.085 E0.01788
G1 X139.846 Y93.085 E0.01698
G1 X140.247 Y93.485 E0.01788
G1 X139.709 Y93.485 E0.01698
G1 X139.309 Y93.085 E0.01788
G1 X138.772 Y93.085 E0.01698
G1 X139.172 Y93.485 E0.01788
G1 X138.635 Y93.485 E0.01698
G1 X138.234 Y93.085 E0.01788
G1 X137.697 Y93.085 E0.01698
M73 P2 R44
G1 X138.097 Y93.485 E0.01788
G1 X137.560 Y93.485 E0.01698
G1 X137.160 Y93.085 E0.01788
G1 X136.622 Y93.085 E0.01698
G1 X137.022 Y93.485 E0.01788
G1 X136.485 Y93.485 E0.01698
G1 X136.085 Y93.085 E0.01788
G1 X135.547 Y93.085 E0.01698
G1 X135.948 Y93.485 E0.01788
G1 X135.410 Y93.485 E0.01698
G1 X135.010 Y93.085 E0.01788
G1 X134.473 Y93.085 E0.01698
G1 X134.873 Y93.485 E0.01788
G1 X134.335 Y93.485 E0.01698
G1 X133.935 Y93.085 E0.01788
G1 X133.398 Y93.085 E0.01698
G1 X133.798 Y93.485 E0.01788
G1 X133.261 Y93.485 E0.01698
G1 X132.860 Y93.085 E0.01788
G1 X132.323 Y93.085 E0.01698
G1 X132.723 Y93.485 E0.01788
G1 X132.186 Y93.485 E0.01698
G1 X131.786 Y93.085 E0.01788
G1 X131.248 Y93.085 E0.01698
G1 X131.648 Y93.485 E0.01788
G1 X131.111 Y93.485 E0.01698
G1 X130.711 Y93.085 E0.01788
G1 X130.173 Y93.085 E0.01698
G1 X130.574 Y93.485 E0.01788
